T: Farewell To Connaught
M: 4/4
L: 1/8
R: reel
K: Dmix
|: D2 FD FGAB | c2cd cA G2 | Add^c d2 cd | ed^cd e^cAF |
D2 FD FGAB | c2cd cA G2 | ABAG EGAB | cAGE ED D2 :|
|: eggf g2 ed | cded cA A2 | eaag a2ag | eaag ed^cd |
eggf g2 ed | cded dAAG | ABAG EGAB | cAGE ED D2 :|
